X:1
T:James Gibb editions
T:When the day of toil is done - Barnby
%%score [ ( 1 2 ) ( 3 4 ) ]
L:1/8
Q:1/4=72
M:4/4
K:D
V:1 treble nm="Midi_74"
V:2 treble 
V:3 bass nm="Midi_74"
V:4 bass 
V:1
"^John Ellerton\n(1826-93)""^When the day of toil is done""^777. 5""^Joseph Barnby\n(1838-96)"!mp! F2 F2 G2 FE | %1
 F2 E2 D4 || A2 A2 =c2 BA | B2 A2 G4 ||[M:4/4] e2 d2 c2 B2 | A2 G2"^rit." F4 || F2 ED D2 C2 | D8 || %8
 G4 F4 |] %9
V:2
 D2 D2 D2 D2 | D2 C2 D4 || D2 D2 =C2 E2 | D2 F2 G4 ||[M:4/4] !courtesy!^C2 D2 E2 G2 | %5
 G2 E2 (D2 C2) || B,2 B,2 A,2 A,2 | A,8 || D4 D4 |] %9
V:3
 A,2 A,2 G,2 B,2 | A,2 G,2 F,4 || F,2 F,2 G,2 G,2 | G,2 =C2 B,4 || %4
[M:4/4]"^1 When the day of toil is done,\nWhen the race of life is run,\nFather, grant Thy wearied one\nRest for evermore.\n\n2 When the strife of sin is stilled,\nWhen the foe within is killed,\nBe Thy gracious word fulfilled,\n\"Peace for evermore.\"\n\n3 When the darkness melts away\nAt the breaking of the day,\nBid us hail the cheering ray,\nLight for evermore." A,2 A,2 G,2 B,2 | %5
 E2 C2 (D2 ^A,2) || %6
"^4 When the heart by sorrow tried\nFeels at length its throbs subside,\nBring us, where all tears are dried,\nJoy for evermore.\n\n5 When for vanished days we yearn,\nDays that never can return,\nTeach us in Thy love to learn\nLove for evermore.\n\n6 When the breath of life is flown,\nWhen the grave must claim its own,\nLord of life, be ours Thy crown,\nLife for evermore.\n" B,D, E,=F, E,2 G,2 | %7
 ^F,8 || B,4 A,4 |] %9
V:4
 D,2 D,2 B,,2 G,,2 | A,,2 A,,2 D,4 || D,2 D,2 E,2 =C,2 | D,2 D,2 G,4 ||[M:4/4] G,2 F,2 E,2 D,2 | %5
 C,2 A,,2 (B,,2 F,,2) || G,,2 ^G,,2 A,,2 A,,2 | D,8 || G,,4 D,4 |] %9

